src/assets/outline/BitcoinCard.svg

<?xml version="1.0" encoding="UTF-8"?>
<svg width="24" height="24" viewBox="0 0 24 24" xmlns="http://www.w3.org/2000/svg">
 <path d="m13 9.25h-11c-0.41 0-0.75-0.34-0.75-0.75s0.34-0.75 0.75-0.75h11c0.41 0 0.75 0.34 0.75 0.75s-0.34 0.75-0.75 0.75z"/>
 <path d="m8 17.25h-2c-0.41 0-0.75-0.34-0.75-0.75s0.34-0.75 0.75-0.75h2c0.41 0 0.75 0.34 0.75 0.75s-0.34 0.75-0.75 0.75z"/>
 <path d="m14.5 17.25h-4c-0.41 0-0.75-0.34-0.75-0.75s0.34-0.75 0.75-0.75h4c0.41 0 0.75 0.34 0.75 0.75s-0.34 0.75-0.75 0.75z"/>
 <path d="m17.56 21.25h-11.12c-3.98 0-5.19-1.2-5.19-5.14v-8.22c0-3.94 1.21-5.14 5.19-5.14h6.84c0.41 0 0.75 0.34 0.75 0.75s-0.34 0.75-0.75 0.75h-6.84c-3.14 0-3.69 0.54001-3.69 3.64v8.22c0 3.1 0.55 3.64 3.69 3.64h11.12c3.14 0 3.69-0.54 3.69-3.64v-4.78c0-0.41 0.34-0.75 0.75-0.75s0.75 0.34 0.75 0.75v4.78c0 3.94-1.21 5.14-5.19 5.14z"/>
 <path d="m20.12 6.5h-3.12c-0.41 0-0.75-0.34-0.75-0.75v-2.5c0-0.41 0.34-0.75 0.75-0.75h3.13c1.07 0 2 0.93 2 2-0.01 1.1-0.9 2-2.01 2zm-2.37-1.5h2.38c0.28 0 0.5-0.22 0.5-0.5 0-0.22-0.24-0.5-0.5-0.5h-2.38v1z"/>
 <path d="m20.57 9h-3.57c-0.41 0-0.75-0.34-0.75-0.75v-2.5c0-0.41 0.34-0.75 0.75-0.75h3.57c1.2 0 2.18 0.9 2.18 2s-0.98 2-2.18 2zm-2.82-1.5h2.82c0.37 0 0.68-0.23 0.68-0.5s-0.31-0.5-0.68-0.5h-2.82v1z"/>
 <path d="m18.76 10.25c-0.41 0-0.75-0.34-0.75-0.75v-1.25c0-0.41 0.34-0.75 0.75-0.75s0.75 0.34 0.75 0.75v1.25c0 0.42-0.33 0.75-0.75 0.75z"/>
 <path d="m18.76 4c-0.41 0-0.75-0.34-0.75-0.75v-1.25c0-0.41 0.34-0.75 0.75-0.75s0.75 0.34 0.75 0.75v1.25c0 0.41-0.33 0.75-0.75 0.75z"/>
 <path d="m18.19 4h-2.19c-0.41 0-0.75-0.34-0.75-0.75s0.34-0.75 0.75-0.75h2.19c0.41 0 0.75 0.34 0.75 0.75s-0.34 0.75-0.75 0.75z"/>
 <path d="m18.19 9h-2.19c-0.41 0-0.75-0.34-0.75-0.75s0.34-0.75 0.75-0.75h2.19c0.41 0 0.75 0.34 0.75 0.75s-0.34 0.75-0.75 0.75z"/>
</svg>

<svg width="24" height="24" viewBox="0 0 24 24"  xmlns="http://www.w3.org/2000/svg">
<path d="M13 9.25H2C1.59 9.25 1.25 8.91 1.25 8.5C1.25 8.09 1.59 7.75 2 7.75H13C13.41 7.75 13.75 8.09 13.75 8.5C13.75 8.91 13.41 9.25 13 9.25Z" />
<path d="M8 17.25H6C5.59 17.25 5.25 16.91 5.25 16.5C5.25 16.09 5.59 15.75 6 15.75H8C8.41 15.75 8.75 16.09 8.75 16.5C8.75 16.91 8.41 17.25 8 17.25Z" />
<path d="M14.5 17.25H10.5C10.09 17.25 9.75 16.91 9.75 16.5C9.75 16.09 10.09 15.75 10.5 15.75H14.5C14.91 15.75 15.25 16.09 15.25 16.5C15.25 16.91 14.91 17.25 14.5 17.25Z" />
<path d="M17.56 21.25H6.44C2.46 21.25 1.25 20.05 1.25 16.11V7.89001C1.25 3.95001 2.46 2.75 6.44 2.75H13.28C13.69 2.75 14.03 3.09 14.03 3.5C14.03 3.91 13.69 4.25 13.28 4.25H6.44C3.3 4.25 2.75 4.79001 2.75 7.89001V16.11C2.75 19.21 3.3 19.75 6.44 19.75H17.56C20.7 19.75 21.25 19.21 21.25 16.11V11.33C21.25 10.92 21.59 10.58 22 10.58C22.41 10.58 22.75 10.92 22.75 11.33V16.11C22.75 20.05 21.54 21.25 17.56 21.25Z" />
<path d="M20.12 6.5H17C16.59 6.5 16.25 6.16 16.25 5.75V3.25C16.25 2.84 16.59 2.5 17 2.5H20.13C21.2 2.5 22.13 3.43 22.13 4.5C22.12 5.6 21.23 6.5 20.12 6.5ZM17.75 5H20.13C20.41 5 20.63 4.78 20.63 4.5C20.63 4.28 20.39 4 20.13 4H17.75V5Z" />
<path d="M20.57 9H17C16.59 9 16.25 8.66 16.25 8.25V5.75C16.25 5.34 16.59 5 17 5H20.57C21.77 5 22.75 5.9 22.75 7C22.75 8.1 21.77 9 20.57 9ZM17.75 7.5H20.57C20.94 7.5 21.25 7.27 21.25 7C21.25 6.73 20.94 6.5 20.57 6.5H17.75V7.5Z" />
<path d="M18.7598 10.25C18.3498 10.25 18.0098 9.91 18.0098 9.5V8.25C18.0098 7.84 18.3498 7.5 18.7598 7.5C19.1698 7.5 19.5098 7.84 19.5098 8.25V9.5C19.5098 9.92 19.1798 10.25 18.7598 10.25Z" />
<path d="M18.7598 4C18.3498 4 18.0098 3.66 18.0098 3.25V2C18.0098 1.59 18.3498 1.25 18.7598 1.25C19.1698 1.25 19.5098 1.59 19.5098 2V3.25C19.5098 3.66 19.1798 4 18.7598 4Z" />
<path d="M18.19 4H16C15.59 4 15.25 3.66 15.25 3.25C15.25 2.84 15.59 2.5 16 2.5H18.19C18.6 2.5 18.94 2.84 18.94 3.25C18.94 3.66 18.6 4 18.19 4Z" />
<path d="M18.19 9H16C15.59 9 15.25 8.66 15.25 8.25C15.25 7.84 15.59 7.5 16 7.5H18.19C18.6 7.5 18.94 7.84 18.94 8.25C18.94 8.66 18.6 9 18.19 9Z" />
</svg>
